_inc/systems/logos/gbc.svg

<?xml version="1.0" encoding="utf-8"?>
<svg id="svg2" version="1.1" viewBox="0 0 264 73" xmlns="http://www.w3.org/2000/svg">
  <g transform="matrix(0.880001, 0, 0, 0.875297, 0.000039, -0.000067)">
    <path id="path5256" d="M 144.397 67.576 C 143.915 66.113 142.639 64.719 142.639 64.719 C 142.639 64.719 140.724 62.233 136.96 61.383 C 133.737 60.709 131.206 62.13 131.206 62.13 C 131.206 62.13 128.907 63.051 127.179 64.956 C 124.427 67.604 123.635 71.471 123.635 71.471 C 123.635 71.471 122.58 74.837 124.251 77.504 L 126.066 79.7 C 128.629 81.838 131.367 82.055 131.367 82.055 C 131.367 82.055 133.577 82.554 136.156 81.882 C 138.41 81.426 140.05 80.313 140.05 80.313 C 140.05 80.313 143.783 78.249 144.808 74.034 L 144.397 67.576 Z M 138.582 74.588 C 138.582 74.588 137.09 77.195 133.811 76.886 C 129.96 76.492 129.507 73.11 129.507 73.11 C 129.507 73.11 128.979 70.621 131.351 68.453 C 133.753 66.435 136.257 66.741 136.257 66.741 C 136.257 66.741 137.939 66.901 138.805 69.684 C 139.917 73.227 138.582 74.588 138.582 74.588" style="fill-opacity: 1; fill: rgb(255, 255, 255);"/>
    <path id="path5262" d="M 156.841 74.632 C 155.609 74.361 153.634 74.866 153.634 74.866 C 153.634 74.866 150.883 75.876 150.458 75.861 C 150.296 75.628 149.947 71.132 150.047 69.332 C 150.107 66.155 149.841 63.563 149.841 63.563 C 149.841 63.563 149.71 60.502 148.07 58.688 C 146.138 56.74 144.79 57.576 144.015 58.042 C 142.155 59.713 143.02 61.746 143.02 61.746 L 143.986 64.486 C 143.986 64.486 144.454 65.657 144.397 67.574 L 144.806 74.032 C 144.806 74.896 145.509 80.709 145.509 80.709 C 145.509 80.709 145.581 82.598 147.397 82.934 C 149.258 83.242 151.087 82.318 151.863 81.951 C 152.639 81.587 153.664 81.265 153.664 81.265 C 153.664 81.265 154.513 81.074 155.362 81.002 C 157.354 80.81 158.07 80.461 158.07 80.461 C 158.07 80.461 158.84 80.344 159.36 79.61 C 159.878 78.877 160.504 75.439 156.841 74.632" style="fill-opacity: 1; fill: rgb(255, 255, 255);"/>
    <path id="path5264" d="M 124.251 77.501 C 122.941 77.11 121.441 77.371 121.441 77.371 C 121.441 77.371 117.194 77.78 114.983 77.312 C 111.558 76.712 111.672 73.022 111.672 73.022 C 111.672 73.022 111.558 70.575 113.621 67.267 C 116.169 63.182 118.981 62.45 118.981 62.45 C 118.981 62.45 119.681 62.187 120.341 62.538 C 120.751 64.908 123.048 64.893 123.048 64.893 C 123.048 64.893 126.36 65.115 126.196 61.103 C 125.816 57.808 122.64 57.356 121.307 57.047 C 117.312 56.329 114.717 58.468 114.717 58.468 C 114.717 58.468 112.039 59.916 108.833 64.967 C 106.649 68.1 106.386 70.562 106.386 70.562 C 106.386 70.562 106.124 71.146 106.225 73.754 C 106.168 75.788 106.93 77.267 106.93 77.267 C 106.93 77.267 108.086 80.769 111.747 82.203 C 113.972 83.125 117.222 83.111 117.222 83.111 C 117.222 83.111 120.37 83.066 122.785 82.935 C 124.104 83.037 124.733 82.348 124.733 82.348 C 124.733 82.348 126.21 81.382 126.065 79.698 C 126.065 79.698 125.779 77.959 124.251 77.501" style="fill-opacity: 1; fill: rgb(255, 255, 255);"/>
    <path id="path5258" d="M 177.442 66.799 C 174.882 62.613 170.371 61.983 170.371 61.983 C 170.371 61.983 168.936 61.498 165.862 61.907 C 160.094 63.007 158.087 67.443 158.087 67.443 C 158.087 67.443 156.022 70.693 156.842 74.632 L 159.363 79.61 C 161.222 81.353 161.983 81.353 162.099 81.457 C 164.56 82.569 167.414 81.925 167.414 81.925 C 167.414 81.925 171.018 81.573 174.312 79.01 C 176.946 77.078 178.089 74.238 178.089 74.238 L 178.438 70.426 L 177.442 66.799 L 177.442 66.799 Z M 170.431 75.348 C 166.288 77.839 163.679 75.115 163.679 75.115 C 163.679 75.115 162.523 74.353 162.273 72.04 C 162.096 69.361 164.764 67.97 164.764 67.97 C 164.764 67.97 166.169 67.105 167.926 67.238 C 169.682 67.369 170.237 67.253 171.66 68.308 C 173.005 69.522 172.917 70.414 172.917 70.414 C 172.917 70.414 173.401 73.432 170.431 75.348" style="fill-opacity: 1; fill: rgb(255, 255, 255);"/>
    <path id="path5260" d="M 178.087 74.238 C 178.087 74.238 178.175 76.58 177.809 77.152 C 177.311 78.22 177.385 79.258 177.385 79.258 C 177.385 79.258 177.046 82.422 180.71 82.947 C 183.225 82.934 183.533 80.839 183.577 79.946 C 183.722 79.244 183.665 75.979 183.665 75.979 L 186.931 78.643 C 186.931 78.643 189.302 80.634 190.695 81.79 C 192.144 82.932 192.509 83.138 192.509 83.138 C 192.509 83.138 192.817 83.503 193.929 83.371 C 194.824 83.387 195.644 82.58 195.644 82.58 C 195.644 82.58 196.681 81.821 196.945 80.487 C 197.266 78.906 196.037 78.13 196.037 78.13 C 196.037 78.13 191.5 74.469 188.426 71.951 C 190.488 70.823 191.484 70.049 191.484 70.049 C 191.484 70.049 194.356 68.145 194.969 65.231 C 195.82 62.023 193.403 60.765 193.403 60.765 C 193.403 60.765 191.894 59.682 190.622 59.11 C 187.414 57.544 184.428 57.865 184.428 57.865 C 184.428 57.865 180.182 57.573 177.416 60.986 C 176.141 62.639 176.933 64.807 176.933 64.807 C 176.933 64.807 177.09 65.154 177.445 66.797 C 178.154 70.106 178.087 74.238 178.087 74.238 L 178.087 74.238 Z M 183.651 67.736 L 183.373 63.915 C 183.373 63.915 186.052 63.856 187.165 64.047 C 189.362 64.382 189.243 64.999 189.243 64.999 C 189.243 64.999 189.17 65.775 187.502 66.536 C 185.688 67.414 183.651 67.736 183.651 67.736" style="fill-opacity: 1; fill: rgb(255, 255, 255);"/>
    <path d="M 286.97198486328125 0.484000027179718 L 300 0.484000027179718 L 281.63299560546875 29.05699920654297 L 278.65399169921875 51.347999572753906 L 266.8800048828125 51.347999572753906 L 270.33099365234375 25.913000106811523 L 258.5570068359375 0.484000027179718 L 271.2720031738281 0.484000027179718 L 277.5539855957031 14.928999900817871 Z" id="_43443024" style="fill: rgb(255, 255, 255);"/>
    <path d="M 149.7729949951172 31.253000259399414 L 165.30999755859375 31.253000259399414 L 166.88099670410156 19.951000213623047 L 151.49899291992188 19.951000213623047 L 152.60000610351562 11.78600025177002 L 170.49099731445312 11.78600025177002 L 172.2209930419922 0.484000027179718 L 142.55099487304688 0.484000027179718 L 135.48699951171875 51.347999572753906 L 164.9980010986328 51.347999572753906 L 166.5679931640625 40.04100036621094 L 148.67300415039062 40.04100036621094 Z" id="_43441624" style="fill: rgb(255, 255, 255);"/>
    <path id="_43775888" d="M 59.352 26.227 L 63.277 15.71 L 64.534 26.227 L 59.353 26.227 Z M 55.114 36.274 L 65.787 36.274 L 67.673 51.344 L 86.98 51.344 L 95.929 23.715 L 100.325 51.344 L 110.53 51.344 L 121.832 22.146 L 123.716 51.344 L 135.017 51.344 L 131.878 0.482 L 118.377 0.482 L 107.858 27.325 L 103.776 0.482 L 91.689 0.482 L 77.874 42.239 L 72.694 0.482 L 57.624 0.482 L 40.826 42.708 L 43.024 26.227 L 22.614 26.227 L 21.2 36.272 L 30.149 36.272 L 29.52 39.726 C 27.951 40.667 24.341 40.825 22.928 40.825 C 21.516 40.825 10.998 39.884 11.468 28.58 C 11.936 17.279 27.005 6.761 44.901 12.569 L 46.629 1.737 C 34.698 -2.343 3.363 -0.059 0.161 27.952 C -1.721 44.436 13.35 52.285 23.395 52.13 C 29.203 52.444 35.798 50.246 38.151 48.989 L 37.367 51.344 L 49.298 51.344 L 55.106 36.274 Z" style="fill: rgb(255, 255, 255);"/>
    <path id="_44102912" d="M 245.841 0.014 C 237.678 -0.301 225.904 4.409 221.98 23.404 C 218.056 42.397 228.572 50.09 238.306 51.347 C 248.039 52.602 261.697 46.48 264.207 28.271 C 266.722 10.06 257.768 0.485 245.841 0.014 Z M 244.588 10.846 C 247.884 10.846 254.947 13.044 253.22 26.228 C 251.494 39.415 243.331 40.985 240.349 40.672 C 237.364 40.356 231.243 38.317 232.97 26.228 C 234.7 14.143 241.135 10.688 244.591 10.846 Z" style="fill: rgb(255, 255, 255);"/>
    <path id="_44104296" d="M 196.234 19.951 L 202.828 19.951 C 207.693 19.951 208.636 16.811 208.791 15.556 C 208.948 14.3 207.536 11.788 205.026 11.788 L 197.334 11.788 L 196.238 19.951 Z M 193.408 40.044 L 202.357 40.044 C 207.222 40.044 208.321 36.277 208.478 35.02 C 208.635 33.765 207.222 31.253 204.711 31.253 L 194.665 31.253 L 193.41 40.044 Z M 180.226 51.347 L 187.291 0.485 L 208.953 0.485 C 214.135 0.485 221.669 6.452 220.728 14.456 C 219.786 22.463 217.274 22.935 215.547 24.19 C 218.217 26.543 220.884 30.31 219.786 37.375 C 218.686 44.441 212.878 51.347 202.676 51.347 L 180.227 51.347 Z" style="fill: rgb(255, 255, 255);"/>
  </g>
</svg>

<svg xmlns="http://www.w3.org/2000/svg" viewBox="0 0 264 73"><path d="M144.4 67.58c-.49-1.47-1.76-2.86-1.76-2.86s-1.92-2.49-5.68-3.34c-3.22-.67-5.75.75-5.75.75s-2.3.92-4.03 2.83a14 14 0 0 0-3.55 6.51s-1.05 3.37.62 6.03l1.82 2.2a10.4 10.4 0 0 0 5.3 2.36s2.2.5 4.79-.18c2.25-.45 3.89-1.57 3.89-1.57s3.73-2.06 4.76-6.28zm-5.82 7s-1.49 2.61-4.77 2.3c-3.85-.39-4.3-3.77-4.3-3.77s-.53-2.49 1.84-4.66c2.4-2.02 4.9-1.7 4.9-1.7s1.69.15 2.56 2.93c1.1 3.55-.23 4.9-.23 4.9" style="fill-opacity:1;fill:#fff" transform="scale(.88 .8753)"/><path d="M156.84 74.63c-1.23-.27-3.2.24-3.2.24s-2.76 1-3.18 1c-.16-.24-.51-4.74-.41-6.54.06-3.17-.2-5.77-.2-5.77s-.14-3.06-1.78-4.87c-1.93-1.95-3.28-1.11-4.06-.65-1.85 1.67-.99 3.7-.99 3.7l.97 2.75s.46 1.17.4 3.08l.42 6.46c0 .87.7 6.68.7 6.68s.07 1.89 1.89 2.22c1.86.31 3.69-.61 4.46-.98.78-.36 1.8-.69 1.8-.69s.85-.19 1.7-.26c2-.19 2.71-.54 2.71-.54s.77-.12 1.29-.85a3.4 3.4 0 0 0-2.52-4.98m-32.59 2.87c-1.3-.39-2.8-.13-2.8-.13s-4.26.41-6.47-.06c-3.42-.6-3.3-4.29-3.3-4.29s-.12-2.44 1.94-5.75c2.55-4.09 5.36-4.82 5.36-4.82s.7-.26 1.36.09c.41 2.37 2.7 2.35 2.7 2.35s3.32.22 3.16-3.79c-.38-3.3-3.56-3.74-4.9-4.05-3.99-.72-6.58 1.42-6.58 1.42s-2.68 1.45-5.89 6.5c-2.18 3.13-2.44 5.6-2.44 5.6s-.27.58-.17 3.18c-.05 2.04.71 3.52.71 3.52s1.16 3.5 4.82 4.93c2.22.92 5.47.91 5.47.91s3.15-.04 5.56-.17c1.32.1 1.95-.6 1.95-.6s1.48-.96 1.33-2.64c0 0-.28-1.74-1.8-2.2" style="fill-opacity:1;fill:#fff" transform="scale(.88 .8753)"/><path d="M177.44 66.8c-2.56-4.19-7.07-4.82-7.07-4.82s-1.43-.48-4.5-.07a10.9 10.9 0 0 0-7.78 5.53s-2.07 3.25-1.25 7.2l2.52 4.97c1.86 1.74 2.62 1.74 2.74 1.85 2.46 1.1 5.31.47 5.31.47s3.6-.36 6.9-2.92a12 12 0 0 0 3.78-4.77l.35-3.81zm-7 8.55c-4.15 2.49-6.76-.23-6.76-.23s-1.16-.77-1.4-3.08c-.18-2.68 2.48-4.07 2.48-4.07s1.4-.86 3.17-.73c1.75.13 2.3.01 3.73 1.07 1.34 1.21 1.26 2.1 1.26 2.1s.48 3.02-2.49 4.94" style="fill-opacity:1;fill:#fff" transform="scale(.88 .8753)"/><path d="M178.09 74.24s.09 2.34-.28 2.91c-.5 1.07-.43 2.1-.43 2.1s-.33 3.17 3.33 3.7c2.51-.02 2.82-2.11 2.87-3 .14-.7.08-3.97.08-3.97l3.27 2.66s2.37 2 3.76 3.15c1.45 1.14 1.82 1.35 1.82 1.35s.3.36 1.42.23c.9.02 1.71-.79 1.71-.79s1.04-.76 1.3-2.1c.33-1.57-.9-2.35-.9-2.35s-4.54-3.66-7.61-6.18c2.06-1.13 3.05-1.9 3.05-1.9s2.88-1.9 3.49-4.82c.85-3.2-1.57-4.47-1.57-4.47s-1.5-1.08-2.78-1.65c-3.2-1.57-6.2-1.24-6.2-1.24s-4.24-.3-7 3.12c-1.28 1.65-.49 3.82-.49 3.82s.16.34.51 1.99c.71 3.3.65 7.44.65 7.44m5.56-6.5-.28-3.82s2.68-.06 3.8.13c2.2.33 2.07.95 2.07.95s-.07.78-1.74 1.54a16 16 0 0 1-3.85 1.2" style="fill-opacity:1;fill:#fff" transform="scale(.88 .8753)"/><path d="M286.97.48H300l-18.37 28.58-2.98 22.29h-11.77l3.45-25.44L258.56.48h12.71l6.28 14.45Zm-137.2 30.77h15.54l1.57-11.3H151.5l1.1-8.16h17.9l1.72-11.3h-29.67l-7.06 50.86h29.5l1.58-11.3h-17.9Zm-90.42-5.02 3.93-10.52 1.25 10.52zm-4.24 10.04H65.8l1.88 15.07h19.31l8.95-27.63 4.4 27.63h10.2l11.3-29.2 1.89 29.2h11.3L131.88.48h-13.5l-10.52 26.85L103.78.47h-12.1l-13.8 41.76L72.68.48H57.62l-16.8 42.23 2.2-16.48h-20.4L21.2 36.27h8.95l-.63 3.46c-1.57.94-5.18 1.1-6.6 1.1-1.4 0-11.92-.95-11.45-12.25S27 6.76 44.9 12.57l1.73-10.83C34.7-2.34 3.36-.06.16 27.95-1.72 44.44 13.35 52.28 23.4 52.13c5.8.31 12.4-1.88 14.75-3.14l-.78 2.35H49.3z" style="fill:#fff" transform="scale(.88 .8753)"/><path d="M245.84.01c-8.16-.31-19.94 4.4-23.86 23.4-3.92 18.99 6.6 26.68 16.33 27.94 9.73 1.25 23.39-4.87 25.9-23.08S257.77.5 245.84.01m-1.25 10.84c3.3 0 10.36 2.2 8.63 15.38s-9.89 14.76-12.87 14.44c-2.99-.31-9.1-2.35-7.38-14.44 1.73-12.09 8.16-15.54 11.62-15.38" style="fill:#fff" transform="scale(.88 .8753)"/><path d="M196.23 19.95h6.6c4.86 0 5.8-3.14 5.96-4.4.16-1.25-1.25-3.76-3.76-3.76h-7.7zm-2.82 20.1h8.95a5.74 5.74 0 0 0 6.12-5.03c.16-1.26-1.26-3.77-3.77-3.77h-10.05zm-13.18 11.3L187.29.49h21.66c5.19 0 12.72 5.96 11.78 13.97-.94 8-3.46 8.47-5.18 9.73 2.67 2.35 5.33 6.12 4.24 13.18-1.1 7.07-6.91 13.98-17.11 13.98z" style="fill:#fff" transform="scale(.88 .8753)"/></svg>
